; generated by PrusaSlicer 2.3.3+win64 on 2021-10-11 at 22:41:48 UTC

; 

; external perimeters extrusion width = 0.45mm
; perimeters extrusion width = 0.45mm
; infill extrusion width = 0.45mm
; solid infill extrusion width = 0.45mm
; top infill extrusion width = 0.40mm
; first layer extrusion width = 0.42mm

M201 X500 Y500 Z100 E5000 ; sets maximum accelerations, mm/sec^2
M203 X500 Y500 Z10 E60 ; sets maximum feedrates, mm/sec
M204 P500 R1000 T500 ; sets acceleration (P, T) and retract acceleration (R), mm/sec^2
M205 X8.00 Y8.00 Z0.40 E5.00 ; sets the jerk limits, mm/sec
M205 S0 T0 ; sets the minimum extruding and travel feed rate, mm/sec
M107
;TYPE:Custom
G90 ; use absolute coordinates
M83 ; extruder relative mode
M140 S60 ; set final bed temp
M104 S150 ; set temporary nozzle temp to prevent oozing during homing
G4 S10 ; allow partial nozzle warmup
G28 ; home all axis
G1 Z50 F240
G1 X2 Y10 F3000
M104 S215 ; set final nozzle temp
M190 S60 ; wait for bed temp to stabilize
M109 S215 ; wait for nozzle temp to stabilize
G1 Z0.28 F240
G92 E0
G1 Y140 E10 F1500 ; prime the nozzle
G1 X2.3 F5000
G92 E0
G1 Y10 E10 F1200 ; prime the nozzle
G92 E0
G21 ; set units to millimeters
G90 ; use absolute coordinates
M83 ; use relative distances for extrusion
; Filament gcode
;LAYER_CHANGE
;Z:0.2
;HEIGHT:0.2
;BEFORE_LAYER_CHANGE
G92 E0
;0.2


G1 E-5.00000 F3600.000
G1 Z0.200 F9000.000
;AFTER_LAYER_CHANGE
;0.2
G1 X14.655 Y84.684
G1 E5.00000 F2400.000
M204 S500
;TYPE:Skirt
;WIDTH:0.42
G1 F1200.000
G1 X15.491 Y84.623 E0.02629
G1 X215.505 Y84.623 E6.27128
G1 X216.637 Y84.734 E0.03568
G1 X217.737 Y85.065 E0.03601
G1 X218.755 Y85.607 E0.03617
G1 X219.633 Y86.322 E0.03549
G1 X220.374 Y87.216 E0.03640
G1 X220.912 Y88.209 E0.03542
G1 X221.256 Y89.313 E0.03625
G1 X221.376 Y90.408 E0.03453
G1 X221.355 Y141.000 E1.58628
G1 X221.209 Y141.896 E0.02848
G1 X220.942 Y142.719 E0.02713
G1 X220.546 Y143.513 E0.02780
G1 X220.044 Y144.228 E0.02740
G1 X219.441 Y144.860 E0.02739
G1 X218.747 Y145.398 E0.02753
G1 X217.985 Y145.826 E0.02740
G1 X217.133 Y146.145 E0.02853
G1 X216.345 Y146.316 E0.02527
G1 X215.506 Y146.377 E0.02640
G1 X15.436 Y146.376 E6.27303
G1 X14.430 Y146.279 E0.03169
G1 X13.568 Y146.050 E0.02796
G1 X12.731 Y145.684 E0.02867
G1 X11.960 Y145.191 E0.02869
G1 X11.286 Y144.596 E0.02816
G1 X10.641 Y143.806 E0.03198
G1 X10.184 Y143.006 E0.02891
G1 X9.856 Y142.138 E0.02909
G1 X9.684 Y141.345 E0.02542
G1 X9.623 Y140.515 E0.02611
G1 X9.634 Y90.140 E1.57947
G1 X9.780 Y89.154 E0.03124
G1 X10.039 Y88.330 E0.02709
G1 X10.437 Y87.517 E0.02839
G1 X10.930 Y86.805 E0.02715
G1 X11.546 Y86.152 E0.02813
G1 X12.241 Y85.609 E0.02766
G1 X13.004 Y85.179 E0.02746
G1 X13.863 Y84.856 E0.02877
G1 X14.596 Y84.697 E0.02354
G1 E-3.50000 F3600.000
;WIPE_START
G1 F7200.000
G1 X15.491 Y84.623 E-0.42656
G1 X17.593 Y84.623 E-0.99844
;WIPE_END
G1 E-0.07500 F3600.000
G1 X115.886 Y108.509 F9000.000
G1 E5.00000 F2400.000
;TYPE:External perimeter
G1 F1200.000
G1 X116.808 Y108.297 E0.02968
G1 X116.808 Y108.977 E0.02131
G1 X115.879 Y108.682 E0.03057
G1 X115.883 Y108.569 E0.00354
G1 X116.286 Y108.511 F9000.000
G1 X116.576 Y108.032
;WIDTH:0.257572
G1 F1200.000
G1 X117.018 Y107.921 E0.00814
G1 X115.795 Y108.604 F9000.000
;WIDTH:0.42
G1 F1200.000
G1 X115.676 Y108.984 E0.01247
G1 X115.505 Y109.150 E0.00749
G1 X115.374 Y109.151 E0.00409
G1 X115.252 Y109.116 E0.00397
G1 X115.193 Y108.874 E0.00780
G1 X115.190 Y108.511 E0.01140
G1 X115.211 Y108.392 E0.00376
G1 X115.277 Y108.261 E0.00463
G1 X115.378 Y108.207 E0.00357
G1 X115.456 Y108.193 E0.00251
G1 X115.648 Y108.274 E0.00653
G1 X115.770 Y108.549 E0.00945
G1 X115.456 Y108.813 F9000.000
G1 X114.030 Y108.247
;WIDTH:0.306257
G1 F1200.000
G1 X113.753 Y109.074 E0.01911
G1 E-3.50000 F3600.000
;WIPE_START
G1 F7200.000
G1 X114.030 Y108.247 E-0.41453
;WIPE_END
G1 E-1.08547 F3600.000
G1 X125.436 Y109.977 F9000.000
G1 E5.00000 F2400.000
;WIDTH:0.221993
G1 F1200.000
G1 X125.471 Y109.786 E0.00289
;WIDTH:0.267732
G1 X125.506 Y109.595 E0.00363
;WIDTH:0.31347
G1 X125.541 Y109.404 E0.00436
G1 E-3.50000 F3600.000
;WIPE_START
G1 F7200.000
G1 X125.506 Y109.595 E-0.09213
;WIPE_END
G1 E-1.40787 F3600.000
G1 X131.459 Y109.676 F9000.000
G1 E5.00000 F2400.000
;WIDTH:0.601614
G1 F1200.000
G1 X131.459 Y107.409 E0.10534
G1 E-3.50000 F3600.000
;WIPE_START
G1 F7200.000
G1 X131.459 Y109.676 E-1.07705
;WIPE_END
G1 E-0.42295 F3600.000
G1 X138.979 Y100.000 F9000.000
G1 E5.00000 F2400.000
;WIDTH:0.42
G1 F1200.000
G1 X138.924 Y99.888 E0.00392
G1 X138.885 Y99.718 E0.00547
G1 X138.870 Y99.451 E0.00839
G1 X138.894 Y99.211 E0.00755
G1 X138.927 Y99.106 E0.00347
G1 X138.837 Y99.106 E0.00283
G1 X139.073 Y98.893 E0.00998
G1 X139.177 Y98.841 E0.00364
G1 X139.281 Y98.821 E0.00331
G1 X139.442 Y98.828 E0.00506
G1 X139.550 Y98.870 E0.00362
G1 X139.808 Y99.106 E0.01097
G1 X139.154 Y99.106 E0.02051
G1 X139.154 Y99.960 E0.02677
G1 X139.038 Y99.987 E0.00375
G1 X138.950 Y99.879 F9000.000
G1 X140.619 Y99.074
;WIDTH:0.488683
G1 F1200.000
G1 X140.719 Y99.112 E0.00397
;WIDTH:0.381958
G1 X140.874 Y99.156 E0.00456
;WIDTH:0.429079
G1 X140.919 Y99.172 E0.00151
;WIDTH:0.476198
G1 X140.963 Y99.188 E0.00169
;WIDTH:0.523317
G1 X141.007 Y99.205 E0.00188
;WIDTH:0.570435
G1 X141.051 Y99.221 E0.00206
;WIDTH:0.606632
G1 X141.095 Y99.237 E0.00220
G1 X141.100 Y99.316 E0.00369
G1 X141.100 Y100.377 E0.04973
G1 E-3.50000 F3600.000
;WIPE_START
G1 F7200.000
G1 X141.100 Y99.316 E-0.50393
G1 X141.095 Y99.237 E-0.03736
G1 X141.051 Y99.221 E-0.02233
;WIPE_END
G1 E-0.93638 F3600.000
G1 X148.355 Y99.746 F9000.000
G1 E5.00000 F2400.000
;WIDTH:0.318078
G1 F1200.000
G1 X148.750 Y99.799 E0.00913
;WIDTH:0.361586
G1 X149.179 Y100.010 E0.01267
;WIDTH:0.405618
G1 X149.608 Y100.222 E0.01442
G1 X149.341 Y100.065 F9000.000
;WIDTH:0.563126
G1 F1200.000
G1 X149.188 Y100.067 E0.00661
G1 X149.466 Y98.911 F9000.000
;WIDTH:0.393915
G1 F1200.000
G1 X149.323 Y98.837 E0.00470
G1 X149.252 Y98.825 E0.00210
G1 X149.162 Y98.838 E0.00266
G1 E-3.50000 F3600.000
;WIPE_START
G1 F7200.000
G1 X149.252 Y98.825 E-0.04326
G1 X149.323 Y98.837 E-0.03421
G1 X149.466 Y98.911 E-0.07649
;WIPE_END
G1 E-1.34604 F3600.000
G1 X145.465 Y107.830 F9000.000
G1 E5.00000 F2400.000
;WIDTH:0.42
G1 F1200.000
G1 X145.465 Y108.235 E0.01270
G1 X145.437 Y108.681 E0.01401
G1 X145.465 Y109.425 E0.02332
G1 X145.305 Y109.473 E0.00526
G1 X145.133 Y109.216 E0.00971
G1 X144.956 Y108.849 E0.01275
G1 X144.831 Y108.639 E0.00767
G1 X144.941 Y108.449 E0.00687
G1 X145.096 Y108.102 E0.01191
G1 X145.303 Y107.782 E0.01196
G1 X145.408 Y107.813 E0.00342
G1 X145.342 Y108.211 F9000.000
G1 E-3.50000 F3600.000
;WIPE_START
G1 F7200.000
G1 X145.465 Y108.235 E-0.20240
G1 X145.437 Y108.681 E-0.21231
G1 X145.465 Y109.425 E-0.35323
G1 X145.305 Y109.473 E-0.07972
G1 X145.133 Y109.216 E-0.14713
G1 X144.956 Y108.849 E-0.19320
G1 X144.831 Y108.639 E-0.11617
G1 X144.941 Y108.449 E-0.10402
G1 X144.955 Y108.417 E-0.01680
;WIPE_END
G1 E-0.07500 F3600.000
G1 X163.275 Y108.113 F9000.000
G1 E5.00000 F2400.000
;WIDTH:0.379364
G1 F1200.000
G1 X163.408 Y108.108 E0.00374
G1 X163.525 Y108.168 E0.00368
;WIDTH:0.355761
G1 X163.564 Y108.199 E0.00130
;WIDTH:0.313404
G1 X163.690 Y108.251 E0.00306
;WIDTH:0.297992
G1 X163.830 Y108.281 E0.00304
;WIDTH:0.275907
G1 X164.055 Y108.421 E0.00513
G1 X163.410 Y109.175 F9000.000
;WIDTH:0.484915
G1 F1200.000
G1 X163.281 Y109.181 E0.00477
G1 E-3.50000 F3600.000
;WIPE_START
G1 F7200.000
G1 X163.410 Y109.175 E-0.06159
;WIPE_END
G1 E-1.43841 F3600.000
G1 X169.933 Y108.934 F9000.000
G1 E5.00000 F2400.000
;WIDTH:0.42
G1 F1200.000
G1 X170.267 Y108.564 E0.01563
G1 X170.272 Y108.943 E0.01189
G1 X170.320 Y109.162 E0.00703
G1 X170.138 Y109.232 E0.00610
G1 X170.039 Y109.058 E0.00629
G1 X169.972 Y108.979 E0.00323
G1 X170.322 Y108.841 F9000.000
G1 E-3.50000 F3600.000
;WIPE_START
G1 F7200.000
G1 X170.267 Y108.564 E-0.24205
G1 X170.272 Y108.943 E-0.18005
G1 X170.320 Y109.162 E-0.10651
G1 X170.138 Y109.232 E-0.09237
G1 X170.039 Y109.058 E-0.09531
G1 X169.972 Y108.979 E-0.04892
;WIPE_END
G1 E-0.73479 F3600.000
G1 X178.101 Y109.691 F9000.000
G1 E5.00000 F2400.000
;WIDTH:0.589492
G1 F1200.000
G1 X178.101 Y107.672 E0.09176
G1 E-3.50000 F3600.000
;WIPE_START
G1 F7200.000
G1 X178.101 Y109.691 E-0.95908
;WIPE_END
G1 E-0.54092 F3600.000
G1 X180.480 Y108.139 F9000.000
G1 E5.00000 F2400.000
;WIDTH:0.35317
G1 F1200.000
G1 X179.445 Y108.140 E0.02670
;WIDTH:0.317105
G1 X179.254 Y108.139 E0.00435
G1 X179.261 Y109.147 F9000.000
;WIDTH:0.508294
G1 F1200.000
G1 X180.480 Y109.147 E0.04719
G1 E-3.50000 F3600.000
;WIPE_START
G1 F7200.000
G1 X179.261 Y109.147 E-0.57930
;WIPE_END
G1 E-0.92070 F3600.000
G1 X188.355 Y96.924 F9000.000
G1 E5.00000 F2400.000
;WIDTH:0.545662
G1 F1200.000
G1 X188.327 Y96.701 E0.00939
;WIDTH:0.499486
G1 X188.299 Y96.478 E0.00853
;WIDTH:0.45331
G1 X188.271 Y96.255 E0.00766
;WIDTH:0.407134
G1 X188.243 Y96.032 E0.00680
;WIDTH:0.360958
G1 X188.215 Y95.809 E0.00594
;WIDTH:0.314782
G1 X188.186 Y95.586 E0.00508
;WIDTH:0.268605
G1 X188.158 Y95.364 E0.00422
;WIDTH:0.222429
G1 X188.130 Y95.141 E0.00335
G1 X189.003 Y94.854 F9000.000
;WIDTH:0.291577
G1 F1200.000
G1 X189.026 Y95.562 E0.01464
G1 X189.900 Y95.140 F9000.000
;WIDTH:0.222393
G1 F1200.000
G1 X189.872 Y95.362 E0.00334
;WIDTH:0.268533
G1 X189.844 Y95.584 E0.00420
;WIDTH:0.314674
G1 X189.816 Y95.806 E0.00506
;WIDTH:0.360815
G1 X189.788 Y96.029 E0.00592
;WIDTH:0.406955
G1 X189.760 Y96.251 E0.00678
;WIDTH:0.453096
G1 X189.732 Y96.473 E0.00764
;WIDTH:0.499236
G1 X189.704 Y96.696 E0.00850
;WIDTH:0.545377
G1 X189.676 Y96.918 E0.00936
G1 E-3.50000 F3600.000
;WIPE_START
G1 F7200.000
G1 X189.704 Y96.696 E-0.10642
;WIPE_END
G1 E-1.39358 F3600.000
G1 X193.939 Y96.025 F9000.000
G1 E5.00000 F2400.000
;WIDTH:0.31856
G1 F1200.000
G1 X194.634 Y96.729 E0.02267
G1 X195.895 Y96.065 F9000.000
;WIDTH:0.559466
G1 F1200.000
G1 X195.725 Y96.064 E0.00727
G1 X195.585 Y95.985 E0.00692
G1 X195.716 Y94.838 F9000.000
;WIDTH:0.393909
G1 F1200.000
G1 X195.851 Y94.831 E0.00394
G1 X195.939 Y94.856 E0.00269
G1 X196.020 Y94.911 E0.00284
G1 E-3.50000 F3600.000
;WIPE_START
G1 F7200.000
G1 X195.939 Y94.856 E-0.04625
G1 X195.851 Y94.831 E-0.04381
G1 X195.716 Y94.838 E-0.06406
;WIPE_END
G1 E-1.34588 F3600.000
G1 X203.191 Y94.873 F9000.000
G1 E5.00000 F2400.000
;WIDTH:0.397492
G1 F1200.000
G1 X202.135 Y94.867 E0.03115
;WIDTH:0.386733
G1 X201.960 Y94.870 E0.00499
;WIDTH:0.359764
G1 X201.785 Y94.872 E0.00460
G1 X201.792 Y96.025 F9000.000
;WIDTH:0.564732
G1 F1200.000
G1 X202.153 Y96.030 E0.01570
;WIDTH:0.574778
G1 X203.191 Y96.025 E0.04590
G1 X203.401 Y96.025 F9000.000
;WIDTH:0.42
G1 F1200.000
G1 X203.401 Y94.905 E0.03511
G1 X203.690 Y94.905 E0.00907
G1 X203.690 Y96.081 E0.03686
G1 X203.405 Y96.081 E0.00894
G1 X203.435 Y95.626 F9000.000
G1 E-3.50000 F3600.000
;WIPE_START
G1 F7200.000
G1 X203.401 Y94.905 E-0.55840
G1 X203.690 Y94.905 E-0.13735
G1 X203.690 Y96.081 E-0.55840
G1 X203.405 Y96.081 E-0.13542
;WIPE_END
G1 E-0.11043 F3600.000
G1 X102.047 Y106.577 F9000.000
G1 E5.00000 F2400.000
;TYPE:Perimeter
G1 F1200.000
G1 X102.050 Y106.773 E0.00614
G1 X101.833 Y106.808 E0.00689
G1 X101.376 Y106.749 E0.01444
G1 X101.349 Y106.584 E0.00527
G1 X101.656 Y106.432 E0.01075
G1 X101.656 Y106.527 E0.00298
G1 X101.988 Y106.570 E0.01049
G1 E-3.50000 F3600.000
;WIPE_START
G1 F7200.000
G1 X102.050 Y106.773 E-0.10109
G1 X101.833 Y106.808 E-0.10438
G1 X101.376 Y106.749 E-0.21883
G1 X101.349 Y106.584 E-0.07980
G1 X101.656 Y106.432 E-0.16281
G1 X101.656 Y106.527 E-0.04511
G1 X101.988 Y106.570 E-0.15898
;WIPE_END
G1 E-0.62900 F3600.000
G1 X99.412 Y106.562 F9000.000
G1 E5.00000 F2400.000
G1 F1200.000
G1 X99.380 Y106.721 E0.00509
G1 X98.334 Y106.855 E0.03305
G1 X98.193 Y106.781 E0.00501
G1 X98.190 Y105.571 E0.03795
G1 X98.576 Y105.504 E0.01227
G1 X98.777 Y105.961 E0.01566
G1 X98.975 Y106.232 E0.01054
G1 X99.164 Y106.418 E0.00830
G1 X99.360 Y106.532 E0.00710
G1 E-3.50000 F3600.000
;WIPE_START
G1 F7200.000
G1 X99.380 Y106.721 E-0.09036
G1 X98.334 Y106.855 E-0.50070
G1 X98.193 Y106.781 E-0.07597
G1 X98.190 Y105.571 E-0.57490
G1 X98.570 Y105.505 E-0.18307
;WIPE_END
G1 E-0.07500 F3600.000
G1 X142.268 Y108.472 F9000.000
G1 E5.00000 F2400.000
G1 F1200.000
G1 X142.445 Y108.387 E0.00616
G1 X142.611 Y108.639 E0.00945
G1 X142.419 Y108.954 E0.01159
G1 X142.286 Y108.529 E0.01398
G1 E-3.50000 F3600.000
;WIPE_START
G1 F7200.000
G1 X142.445 Y108.387 E-0.10136
G1 X142.611 Y108.639 E-0.14318
G1 X142.419 Y108.954 E-0.17554
G1 X142.286 Y108.529 E-0.21172
;WIPE_END
G1 E-0.86820 F3600.000
G1 X151.142 Y99.476 F9000.000
G1 E5.00000 F2400.000
G1 F1200.000
G1 X151.071 Y99.344 E0.00470
G1 X150.958 Y99.241 E0.00477
G1 X151.158 Y98.976 E0.01042
G1 X151.313 Y99.028 E0.00511
G1 X151.313 Y99.433 E0.01271
G1 X151.200 Y99.461 E0.00365
G1 E-3.50000 F3600.000
;WIPE_START
G1 F7200.000
G1 X151.071 Y99.344 E-0.08291
G1 X150.958 Y99.241 E-0.07222
G1 X151.158 Y98.976 E-0.15792
G1 X151.313 Y99.028 E-0.07738
G1 X151.313 Y99.433 E-0.19262
G1 X151.200 Y99.461 E-0.05534
;WIPE_END
G1 E-0.86161 F3600.000
G1 X176.184 Y105.810 F9000.000
G1 E5.00000 F2400.000
G1 F1200.000
G1 X176.763 Y105.661 E0.01876
G1 X176.705 Y106.725 E0.03342
G1 X176.184 Y106.725 E0.01633
G1 X176.184 Y105.870 E0.02678
G1 E-3.50000 F3600.000
;WIPE_START
G1 F7200.000
G1 X176.763 Y105.661 E-0.29258
G1 X176.705 Y106.725 E-0.50623
G1 X176.184 Y106.725 E-0.24736
G1 X176.184 Y105.927 E-0.37882
;WIPE_END
G1 E-0.07500 F3600.000
G1 X181.024 Y106.040 F9000.000
G1 E5.00000 F2400.000
G1 F1200.000
G1 X181.186 Y105.992 E0.00530
G1 X181.261 Y106.107 E0.00428
G1 X181.606 Y106.421 E0.01464
G1 X181.764 Y106.503 E0.00558
G1 X181.720 Y106.677 E0.00562
G1 X181.346 Y106.671 E0.01172
G1 X181.338 Y106.693 E0.00075
G1 X181.026 Y106.691 E0.00977
G1 X181.024 Y106.100 E0.01853
G1 E-3.50000 F3600.000
;WIPE_START
G1 F7200.000
G1 X181.186 Y105.992 E-0.09252
G1 X181.261 Y106.107 E-0.06488
G1 X181.606 Y106.421 E-0.22176
G1 X181.764 Y106.503 E-0.08452
G1 X181.720 Y106.677 E-0.08515
G1 X181.346 Y106.671 E-0.17755
G1 X181.338 Y106.693 E-0.01135
G1 X181.026 Y106.691 E-0.14808
G1 X181.024 Y106.100 E-0.28067
;WIPE_END
G1 E-0.33351 F3600.000
G1 X183.927 Y106.525 F9000.000
G1 E5.00000 F2400.000
G1 F1200.000
G1 X184.192 Y106.355 E0.00986
G1 X184.645 Y105.923 E0.01963
G1 X184.643 Y106.679 E0.02372
G1 X183.979 Y106.690 E0.02080
G1 X183.945 Y106.582 E0.00356
G1 E-3.50000 F3600.000
;WIPE_START
G1 F7200.000
G1 X184.192 Y106.355 E-0.15917
G1 X184.645 Y105.923 E-0.29744
G1 X184.643 Y106.679 E-0.35936
G1 X183.979 Y106.690 E-0.31506
G1 X183.945 Y106.582 E-0.05389
;WIPE_END
G1 E-0.31508 F3600.000
G1 X119.418 Y116.108 F9000.000
G1 E5.00000 F2400.000
G1 F1200.000
G1 X119.438 Y116.500 E0.01231
G1 X119.418 Y116.892 E0.01231
G1 X119.360 Y117.280 E0.01231
G1 X119.263 Y117.661 E0.01231
G1 X119.129 Y118.030 E0.01231
G1 X118.958 Y118.383 E0.01231
G1 X118.754 Y118.718 E0.01231
G1 X118.517 Y119.031 E0.01231
G1 X118.250 Y119.319 E0.01231
G1 X117.955 Y119.579 E0.01231
G1 X117.630 Y119.812 E0.01254
G1 X117.126 Y120.087 E0.01800
G1 X116.754 Y120.233 E0.01254
G1 X116.376 Y120.339 E0.01231
G1 X115.990 Y120.407 E0.01231
G1 X115.598 Y120.437 E0.01231
G1 X115.206 Y120.427 E0.01231
G1 X114.816 Y120.378 E0.01231
G1 X114.433 Y120.291 E0.01231
G1 X114.061 Y120.166 E0.01231
G1 X113.704 Y120.004 E0.01231
G1 X113.364 Y119.808 E0.01231
G1 X113.045 Y119.579 E0.01231
G1 X112.750 Y119.319 E0.01231
G1 X112.483 Y119.031 E0.01231
G1 X112.246 Y118.718 E0.01231
G1 X112.042 Y118.383 E0.01231
G1 X111.871 Y118.030 E0.01231
G1 X111.737 Y117.661 E0.01231
G1 X111.640 Y117.280 E0.01231
G1 X111.582 Y116.892 E0.01231
G1 X111.562 Y116.500 E0.01231
G1 X111.582 Y116.108 E0.01231
G1 X111.640 Y115.720 E0.01231
G1 X111.737 Y115.339 E0.01231
G1 X111.871 Y114.970 E0.01231
G1 X112.042 Y114.617 E0.01231
G1 X112.246 Y114.282 E0.01231
G1 X112.483 Y113.969 E0.01231
G1 X112.750 Y113.681 E0.01231
G1 X113.045 Y113.421 E0.01231
G1 X113.370 Y113.188 E0.01254
G1 X113.874 Y112.913 E0.01800
G1 X114.246 Y112.767 E0.01254
G1 X114.624 Y112.661 E0.01231
G1 X115.010 Y112.593 E0.01231
G1 X115.402 Y112.563 E0.01231
G1 X115.794 Y112.573 E0.01231
G1 X116.184 Y112.622 E0.01231
G1 X116.567 Y112.709 E0.01231
