; generated by PrusaSlicer 2.3.3+win64 on 2022-08-11 at 20:25:41 UTC

; 

; external perimeters extrusion width = 0.45mm
; perimeters extrusion width = 0.45mm
; infill extrusion width = 0.45mm
; solid infill extrusion width = 0.45mm
; top infill extrusion width = 0.40mm
; first layer extrusion width = 0.42mm

M201 X500 Y500 Z100 E5000 ; sets maximum accelerations, mm/sec^2
M203 X500 Y500 Z10 E60 ; sets maximum feedrates, mm/sec
M204 P500 R1000 T500 ; sets acceleration (P, T) and retract acceleration (R), mm/sec^2
M205 X8.00 Y8.00 Z0.40 E5.00 ; sets the jerk limits, mm/sec
M205 S0 T0 ; sets the minimum extruding and travel feed rate, mm/sec
M107
;TYPE:Custom
G90 ; use absolute coordinates
M83 ; extruder relative mode
M140 S60 ; set final bed temp
M104 S150 ; set temporary nozzle temp to prevent oozing during homing and auto bed leveling
G4 S10 ; allow partial nozzle warmup
G28 ; home all axis
G29 ; auto bed levelling
G1 Z50 F240
G1 X2 Y10 F3000
M104 S210 ; set final nozzle temp
M190 S60 ; wait for bed temp to stabilize
M109 S210 ; wait for nozzle temp to stabilize
G1 Z0.28 F240
M420 Z0; Disable Height Fade
G92 E0
G1 Y140 E10 F1500 ; prime the nozzle
G1 X2.3 F5000
G92 E0
G1 Y10 E10 F1200 ; prime the nozzle
G92 E0
M420 Z0; Disable Height Fade
G21 ; set units to millimeters
G90 ; use absolute coordinates
M83 ; use relative distances for extrusion
; Filament gcode
;LAYER_CHANGE
;Z:0.2
;HEIGHT:0.2
;BEFORE_LAYER_CHANGE
G92 E0
;0.2


G1 E-5.00000 F3600.000
G1 Z0.200 F9000.000
;AFTER_LAYER_CHANGE
;0.2
G1 X69.576 Y77.241
G1 E5.00000 F2400.000
M204 S500
;TYPE:Skirt
;WIDTH:0.42
G1 F1200.000
G1 X71.014 Y76.107 E0.05743
G1 X72.283 Y75.375 E0.04593
G1 X73.147 Y74.991 E0.02966
G1 X74.891 Y74.461 E0.05714
G1 X75.747 Y74.309 E0.02724
G1 X77.198 Y74.200 E0.04564
G1 X153.685 Y74.198 E2.39817
G1 X154.640 Y74.240 E0.02997
G1 X156.088 Y74.457 E0.04592
G1 X157.833 Y74.983 E0.05714
G1 X159.474 Y75.786 E0.05728
G1 X160.684 Y76.611 E0.04593
G1 X161.409 Y77.226 E0.02980
G1 X162.650 Y78.579 E0.05757
G1 X163.475 Y79.790 E0.04593
G1 X163.925 Y80.627 E0.02980
G1 X164.583 Y82.331 E0.05729
G1 X164.910 Y83.759 E0.04593
G1 X165.019 Y84.649 E0.02810
G1 X165.030 Y146.199 E1.92987
G1 X164.745 Y148.068 E0.05927
G1 X164.310 Y149.476 E0.04621
G1 X163.936 Y150.350 E0.02980
G1 X163.009 Y151.935 E0.05757
G1 X162.095 Y153.080 E0.04593
G1 X161.424 Y153.759 E0.02995
G1 X159.986 Y154.893 E0.05743
G1 X158.717 Y155.625 E0.04593
G1 X157.853 Y156.009 E0.02966
G1 X156.109 Y156.539 E0.05714
G1 X155.253 Y156.691 E0.02724
G1 X153.802 Y156.800 E0.04564
G1 X77.297 Y156.802 E2.39874
G1 X75.750 Y156.691 E0.04865
G1 X74.801 Y156.520 E0.03023
G1 X73.862 Y156.263 E0.03052
G1 X72.494 Y155.726 E0.04607
G1 X70.825 Y154.765 E0.06040
G1 X69.665 Y153.840 E0.04650
G1 X68.986 Y153.169 E0.02994
G1 X67.859 Y151.742 E0.05700
G1 X67.406 Y151.003 E0.02719
G1 X66.772 Y149.686 E0.04583
G1 X66.229 Y147.960 E0.05672
G1 X65.969 Y146.175 E0.05658
G1 X65.943 Y85.548 E1.90092
G1 X66.054 Y84.005 E0.04851
G1 X66.225 Y83.056 E0.03023
G1 X66.482 Y82.117 E0.03052
G1 X67.019 Y80.749 E0.04607
G1 X67.980 Y79.080 E0.06040
G1 X68.905 Y77.920 E0.04649
G1 X69.533 Y77.283 E0.02807
G1 E-3.50000 F3600.000
;WIPE_START
G1 F7200.000
G1 X71.014 Y76.107 E-0.89826
G1 X71.975 Y75.553 E-0.52674
;WIPE_END
G1 E-0.07500 F3600.000
G1 X112.437 Y140.637 F9000.000
G1 E5.00000 F2400.000
;TYPE:Perimeter
G1 F1200.000
G1 X112.784 Y140.462 E0.01218
G1 X113.155 Y140.348 E0.01218
G1 X113.515 Y140.302 E0.01137
G1 X113.925 Y140.315 E0.01286
G1 X114.308 Y140.397 E0.01229
G1 X114.669 Y140.542 E0.01218
G1 X114.999 Y140.746 E0.01218
G1 X115.291 Y141.002 E0.01218
G1 X115.535 Y141.305 E0.01218
G1 X115.724 Y141.644 E0.01218
G1 X115.853 Y142.010 E0.01218
G1 X115.919 Y142.393 E0.01218
G1 X115.919 Y142.781 E0.01218
G1 X115.853 Y143.164 E0.01218
G1 X115.724 Y143.530 E0.01218
G1 X115.535 Y143.869 E0.01218
G1 X115.291 Y144.171 E0.01218
G1 X114.999 Y144.427 E0.01218
G1 X114.669 Y144.631 E0.01218
G1 X114.308 Y144.776 E0.01218
G1 X113.929 Y144.858 E0.01218
G1 X113.541 Y144.874 E0.01218
G1 X113.155 Y144.825 E0.01218
G1 X112.784 Y144.711 E0.01218
G1 X112.437 Y144.536 E0.01218
G1 X112.125 Y144.305 E0.01218
G1 X111.856 Y144.025 E0.01218
G1 X111.639 Y143.703 E0.01218
G1 X111.479 Y143.349 E0.01218
G1 X111.381 Y142.974 E0.01218
G1 X111.348 Y142.587 E0.01218
G1 X111.381 Y142.200 E0.01218
G1 X111.479 Y141.824 E0.01218
G1 X111.639 Y141.470 E0.01218
G1 X111.856 Y141.148 E0.01218
G1 X112.125 Y140.868 E0.01218
G1 X112.389 Y140.673 E0.01029
G1 X112.613 Y140.976 F9000.000
;TYPE:External perimeter
G1 F1200.000
G1 X112.925 Y140.813 E0.01103
G1 X113.235 Y140.718 E0.01016
G1 X113.533 Y140.680 E0.00943
G1 X113.879 Y140.691 E0.01085
G1 X114.197 Y140.759 E0.01020
G1 X114.498 Y140.880 E0.01016
G1 X114.774 Y141.050 E0.01016
G1 X115.018 Y141.264 E0.01016
G1 X115.221 Y141.516 E0.01016
G1 X115.379 Y141.799 E0.01016
G1 X115.487 Y142.105 E0.01016
G1 X115.542 Y142.425 E0.01016
G1 X115.542 Y142.749 E0.01016
G1 X115.487 Y143.068 E0.01016
G1 X115.379 Y143.374 E0.01016
G1 X115.221 Y143.657 E0.01016
G1 X115.018 Y143.909 E0.01016
G1 X114.774 Y144.123 E0.01016
G1 X114.498 Y144.293 E0.01016
G1 X114.197 Y144.414 E0.01016
G1 X113.881 Y144.482 E0.01016
G1 X113.557 Y144.496 E0.01016
G1 X113.235 Y144.455 E0.01016
G1 X112.925 Y144.360 E0.01016
G1 X112.636 Y144.214 E0.01016
G1 X112.375 Y144.021 E0.01016
G1 X112.151 Y143.787 E0.01016
G1 X111.969 Y143.519 E0.01016
G1 X111.836 Y143.223 E0.01016
G1 X111.754 Y142.910 E0.01016
G1 X111.727 Y142.587 E0.01016
G1 X111.754 Y142.264 E0.01016
G1 X111.836 Y141.950 E0.01016
G1 X111.969 Y141.655 E0.01016
G1 X112.151 Y141.386 E0.01016
G1 X112.375 Y141.152 E0.01016
G1 X112.565 Y141.012 E0.00741
G1 X112.600 Y140.624 F9000.000
G1 E-3.50000 F3600.000
;WIPE_START
G1 F7200.000
G1 X112.925 Y140.813 E-0.19525
G1 X113.235 Y140.718 E-0.15397
G1 X113.533 Y140.680 E-0.14288
G1 X113.879 Y140.691 E-0.16432
G1 X114.197 Y140.759 E-0.15458
G1 X114.498 Y140.880 E-0.15397
G1 X114.774 Y141.050 E-0.15397
G1 X115.018 Y141.264 E-0.15397
G1 X115.219 Y141.513 E-0.15210
;WIPE_END
G1 E-0.07500 F3600.000
G1 X79.616 Y134.492 F9000.000
G1 E5.00000 F2400.000
;TYPE:Perimeter
G1 F1200.000
G1 X79.486 Y134.858 E0.01218
G1 X79.297 Y135.197 E0.01218
G1 X79.053 Y135.499 E0.01218
G1 X78.761 Y135.756 E0.01218
G1 X78.431 Y135.959 E0.01218
G1 X78.070 Y136.104 E0.01218
G1 X77.691 Y136.186 E0.01218
G1 X77.303 Y136.202 E0.01218
G1 X76.918 Y136.153 E0.01218
G1 X76.546 Y136.039 E0.01218
G1 X76.200 Y135.865 E0.01218
G1 X75.887 Y135.634 E0.01218
G1 X75.619 Y135.353 E0.01218
G1 X75.401 Y135.032 E0.01218
G1 X75.241 Y134.678 E0.01218
G1 X75.143 Y134.302 E0.01218
G1 X75.110 Y133.915 E0.01218
G1 X75.143 Y133.528 E0.01218
G1 X75.241 Y133.152 E0.01218
G1 X75.393 Y132.816 E0.01157
G1 X75.617 Y132.479 E0.01269
G1 X75.887 Y132.196 E0.01226
G1 X76.200 Y131.965 E0.01218
G1 X76.546 Y131.791 E0.01218
G1 X76.918 Y131.677 E0.01218
G1 X77.284 Y131.630 E0.01157
G1 X77.688 Y131.643 E0.01269
G1 X78.070 Y131.726 E0.01226
G1 X78.431 Y131.871 E0.01218
G1 X78.761 Y132.074 E0.01218
G1 X79.053 Y132.331 E0.01218
G1 X79.285 Y132.618 E0.01157
G1 X79.485 Y132.969 E0.01269
G1 X79.616 Y133.338 E0.01226
G1 X79.681 Y133.721 E0.01218
G1 X79.681 Y134.109 E0.01218
G1 X79.626 Y134.433 E0.01029
G1 X79.254 Y134.369 F9000.000
;TYPE:External perimeter
G1 F1200.000
G1 X79.141 Y134.702 E0.01103
G1 X78.983 Y134.985 E0.01016
G1 X78.780 Y135.237 E0.01016
G1 X78.536 Y135.452 E0.01016
G1 X78.260 Y135.621 E0.01016
G1 X77.960 Y135.742 E0.01016
G1 X77.643 Y135.811 E0.01016
G1 X77.319 Y135.824 E0.01016
G1 X76.997 Y135.783 E0.01016
G1 X76.687 Y135.688 E0.01016
G1 X76.398 Y135.542 E0.01016
G1 X76.137 Y135.350 E0.01016
G1 X75.913 Y135.116 E0.01016
G1 X75.732 Y134.847 E0.01016
G1 X75.598 Y134.552 E0.01016
G1 X75.516 Y134.238 E0.01016
G1 X75.489 Y133.915 E0.01016
G1 X75.516 Y133.592 E0.01016
G1 X75.598 Y133.278 E0.01016
G1 X75.724 Y132.999 E0.00962
G1 X75.912 Y132.715 E0.01067
G1 X76.137 Y132.480 E0.01019
G1 X76.398 Y132.288 E0.01016
G1 X76.687 Y132.142 E0.01016
G1 X76.997 Y132.047 E0.01016
G1 X77.302 Y132.008 E0.00962
G1 X77.642 Y132.019 E0.01067
G1 X77.960 Y132.088 E0.01019
G1 X78.260 Y132.209 E0.01016
G1 X78.536 Y132.378 E0.01016
G1 X78.780 Y132.593 E0.01016
G1 X78.972 Y132.831 E0.00962
G1 X79.141 Y133.127 E0.01067
G1 X79.249 Y133.433 E0.01019
G1 X79.304 Y133.753 E0.01016
G1 X79.304 Y134.077 E0.01016
G1 X79.264 Y134.310 E0.00741
G1 X79.507 Y134.613 F9000.000
G1 E-3.50000 F3600.000
;WIPE_START
G1 F7200.000
G1 X79.141 Y134.702 E-0.19526
G1 X78.983 Y134.985 E-0.15397
G1 X78.780 Y135.237 E-0.15397
G1 X78.536 Y135.452 E-0.15397
G1 X78.260 Y135.621 E-0.15397
G1 X77.960 Y135.742 E-0.15397
G1 X77.643 Y135.811 E-0.15397
G1 X77.319 Y135.824 E-0.15397
G1 X77.002 Y135.784 E-0.15195
;WIPE_END
G1 E-0.07500 F3600.000
G1 X78.932 Y118.696 F9000.000
G1 E5.00000 F2400.000
;TYPE:Perimeter
G1 F1200.000
G1 X78.541 Y118.713 E0.01229
G1 X78.155 Y118.663 E0.01218
G1 X77.784 Y118.549 E0.01218
G1 X77.437 Y118.375 E0.01218
G1 X77.146 Y118.159 E0.01137
G1 X76.858 Y117.866 E0.01286
G1 X76.639 Y117.542 E0.01229
G1 X76.479 Y117.188 E0.01218
G1 X76.381 Y116.812 E0.01218
G1 X76.348 Y116.425 E0.01218
G1 X76.381 Y116.038 E0.01218
G1 X76.479 Y115.662 E0.01218
G1 X76.639 Y115.308 E0.01218
G1 X76.856 Y114.987 E0.01218
G1 X77.125 Y114.706 E0.01218
G1 X77.437 Y114.475 E0.01218
G1 X77.784 Y114.301 E0.01218
G1 X78.155 Y114.187 E0.01218
G1 X78.515 Y114.141 E0.01137
G1 X78.925 Y114.153 E0.01286
G1 X79.308 Y114.236 E0.01229
G1 X79.669 Y114.381 E0.01218
G1 X79.999 Y114.584 E0.01218
G1 X80.291 Y114.841 E0.01218
G1 X80.535 Y115.143 E0.01218
G1 X80.724 Y115.482 E0.01218
G1 X80.853 Y115.848 E0.01218
G1 X80.919 Y116.231 E0.01218
G1 X80.919 Y116.619 E0.01218
G1 X80.853 Y117.002 E0.01218
G1 X80.724 Y117.368 E0.01218
G1 X80.535 Y117.707 E0.01218
G1 X80.291 Y118.009 E0.01218
G1 X79.999 Y118.266 E0.01218
G1 X79.669 Y118.469 E0.01218
G1 X79.332 Y118.605 E0.01137
G1 X78.991 Y118.683 E0.01098
G1 X78.907 Y118.315 F9000.000
;TYPE:External perimeter
G1 F1200.000
G1 X78.557 Y118.334 E0.01099
G1 X78.235 Y118.293 E0.01016
G1 X77.925 Y118.198 E0.01016
G1 X77.636 Y118.052 E0.01016
G1 X77.394 Y117.874 E0.00943
G1 X77.152 Y117.627 E0.01085
G1 X76.969 Y117.357 E0.01020
G1 X76.836 Y117.062 E0.01016
G1 X76.754 Y116.748 E0.01016
G1 X76.727 Y116.425 E0.01016
G1 X76.754 Y116.102 E0.01016
G1 X76.836 Y115.788 E0.01016
G1 X76.969 Y115.493 E0.01016
G1 X77.151 Y115.224 E0.01016
G1 X77.375 Y114.990 E0.01016
G1 X77.636 Y114.798 E0.01016
G1 X77.925 Y114.652 E0.01016
G1 X78.235 Y114.557 E0.01016
G1 X78.533 Y114.519 E0.00943
G1 X78.879 Y114.529 E0.01085
G1 X79.197 Y114.598 E0.01020
G1 X79.498 Y114.719 E0.01016
G1 X79.774 Y114.888 E0.01016
G1 X80.018 Y115.103 E0.01016
G1 X80.221 Y115.355 E0.01016
G1 X80.379 Y115.638 E0.01016
G1 X80.487 Y115.943 E0.01016
G1 X80.542 Y116.263 E0.01016
G1 X80.542 Y116.587 E0.01016
G1 X80.487 Y116.907 E0.01016
G1 X80.379 Y117.212 E0.01016
G1 X80.221 Y117.495 E0.01016
G1 X80.018 Y117.747 E0.01016
G1 X79.774 Y117.962 E0.01016
G1 X79.498 Y118.131 E0.01016
G1 X79.219 Y118.244 E0.00943
G1 X78.965 Y118.302 E0.00816
G1 X78.775 Y118.640 F9000.000
G1 E-3.50000 F3600.000
;WIPE_START
G1 F7200.000
G1 X78.557 Y118.334 E-0.19471
G1 X78.235 Y118.293 E-0.15397
G1 X77.925 Y118.198 E-0.15397
G1 X77.636 Y118.052 E-0.15397
G1 X77.394 Y117.874 E-0.14288
G1 X77.152 Y117.627 E-0.16432
G1 X76.969 Y117.357 E-0.15458
G1 X76.836 Y117.062 E-0.15397
G1 X76.755 Y116.751 E-0.15263
;WIPE_END
G1 E-0.07500 F3600.000
G1 X77.691 Y100.626 F9000.000
G1 E5.00000 F2400.000
;TYPE:Perimeter
G1 F1200.000
G1 X77.303 Y100.642 E0.01218
G1 X76.918 Y100.593 E0.01218
G1 X76.546 Y100.479 E0.01218
G1 X76.200 Y100.305 E0.01218
G1 X75.887 Y100.074 E0.01218
G1 X75.619 Y99.793 E0.01218
G1 X75.401 Y99.472 E0.01218
G1 X75.241 Y99.118 E0.01218
G1 X75.143 Y98.742 E0.01218
G1 X75.110 Y98.355 E0.01218
G1 X75.143 Y97.968 E0.01218
G1 X75.241 Y97.592 E0.01218
G1 X75.393 Y97.256 E0.01157
G1 X75.617 Y96.919 E0.01269
G1 X75.887 Y96.636 E0.01226
G1 X76.200 Y96.405 E0.01218
G1 X76.546 Y96.231 E0.01218
G1 X76.918 Y96.117 E0.01218
G1 X77.284 Y96.070 E0.01157
G1 X77.688 Y96.083 E0.01269
G1 X78.070 Y96.166 E0.01226
G1 X78.431 Y96.311 E0.01218
G1 X78.761 Y96.514 E0.01218
G1 X79.053 Y96.771 E0.01218
G1 X79.285 Y97.058 E0.01157
G1 X79.485 Y97.409 E0.01269
G1 X79.616 Y97.778 E0.01226
G1 X79.681 Y98.161 E0.01218
G1 X79.681 Y98.549 E0.01218
G1 X79.616 Y98.932 E0.01218
G1 X79.486 Y99.298 E0.01218
G1 X79.297 Y99.637 E0.01218
G1 X79.053 Y99.939 E0.01218
G1 X78.761 Y100.196 E0.01218
G1 X78.431 Y100.399 E0.01218
G1 X78.070 Y100.544 E0.01218
G1 X77.749 Y100.613 E0.01029
G1 X77.670 Y100.245 F9000.000
;TYPE:External perimeter
G1 F1200.000
G1 X77.319 Y100.264 E0.01103
G1 X76.997 Y100.223 E0.01016
G1 X76.687 Y100.128 E0.01016
G1 X76.398 Y99.982 E0.01016
G1 X76.137 Y99.790 E0.01016
G1 X75.913 Y99.556 E0.01016
G1 X75.732 Y99.287 E0.01016
G1 X75.598 Y98.992 E0.01016
G1 X75.516 Y98.678 E0.01016
G1 X75.489 Y98.355 E0.01016
G1 X75.516 Y98.032 E0.01016
G1 X75.598 Y97.718 E0.01016
G1 X75.724 Y97.439 E0.00962
G1 X75.912 Y97.155 E0.01067
G1 X76.137 Y96.920 E0.01019
G1 X76.398 Y96.728 E0.01016
G1 X76.687 Y96.582 E0.01016
G1 X76.997 Y96.487 E0.01016
G1 X77.302 Y96.448 E0.00962
G1 X77.642 Y96.459 E0.01067
G1 X77.960 Y96.528 E0.01019
G1 X78.260 Y96.649 E0.01016
G1 X78.536 Y96.818 E0.01016
G1 X78.780 Y97.033 E0.01016
G1 X78.972 Y97.271 E0.00962
G1 X79.141 Y97.567 E0.01067
G1 X79.249 Y97.873 E0.01019
G1 X79.304 Y98.193 E0.01016
G1 X79.304 Y98.517 E0.01016
G1 X79.249 Y98.837 E0.01016
G1 X79.141 Y99.142 E0.01016
G1 X78.983 Y99.425 E0.01016
G1 X78.780 Y99.677 E0.01016
G1 X78.536 Y99.892 E0.01016
G1 X78.260 Y100.061 E0.01016
G1 X77.960 Y100.182 E0.01016
G1 X77.729 Y100.232 E0.00741
G1 X77.538 Y100.571 F9000.000
G1 E-3.50000 F3600.000
;WIPE_START
G1 F7200.000
G1 X77.319 Y100.264 E-0.19525
G1 X76.997 Y100.223 E-0.15397
G1 X76.687 Y100.128 E-0.15397
G1 X76.398 Y99.982 E-0.15397
G1 X76.137 Y99.790 E-0.15397
G1 X75.913 Y99.556 E-0.15397
G1 X75.732 Y99.287 E-0.15397
G1 X75.598 Y98.992 E-0.15397
G1 X75.517 Y98.682 E-0.15195
;WIPE_END
G1 E-0.07500 F3600.000
G1 X81.822 Y105.731 F9000.000
G1 E5.00000 F2400.000
;TYPE:Perimeter
G1 F1200.000
G1 X82.521 Y105.209 E0.02736
G1 X82.787 Y104.963 E0.01136
G1 X83.023 Y104.688 E0.01136
G1 X83.228 Y104.390 E0.01136
G1 X83.400 Y104.070 E0.01136
G1 X83.535 Y103.734 E0.01136
G1 X83.633 Y103.385 E0.01136
G1 X83.692 Y103.028 E0.01136
G1 X83.713 Y102.647 E0.01195
G1 X83.713 Y95.372 E0.22811
G1 X83.695 Y95.021 E0.01102
G1 X83.645 Y94.691 E0.01048
G1 X83.561 Y94.367 E0.01048
G1 X83.446 Y94.054 E0.01048
G1 X83.299 Y93.754 E0.01048
G1 X83.123 Y93.470 E0.01048
G1 X82.919 Y93.204 E0.01049
G1 X82.344 Y92.593 E0.02633
G1 X82.039 Y92.188 E0.01590
G1 X81.779 Y91.753 E0.01588
G1 X81.569 Y91.292 E0.01588
G1 X81.409 Y90.811 E0.01588
G1 X81.302 Y90.316 E0.01588
G1 X81.249 Y89.813 E0.01588
G1 X81.251 Y89.306 E0.01588
G1 X81.307 Y88.803 E0.01588
G1 X81.417 Y88.308 E0.01588
G1 X81.580 Y87.829 E0.01588
G1 X81.794 Y87.370 E0.01588
G1 X82.056 Y86.936 E0.01588
G1 X82.363 Y86.533 E0.01588
G1 X82.712 Y86.166 E0.01588
G1 X83.099 Y85.839 E0.01588
G1 X83.519 Y85.555 E0.01588
G1 X83.966 Y85.318 E0.01588
G1 X84.437 Y85.131 E0.01588
G1 X84.925 Y84.996 E0.01588
G1 X85.425 Y84.914 E0.01588
G1 X85.912 Y84.888 E0.01530
G1 X104.656 Y84.888 E0.58768
G1 X105.128 Y84.913 E0.01482
G1 X105.612 Y84.989 E0.01539
G1 X106.086 Y85.116 E0.01539
G1 X106.545 Y85.292 E0.01539
G1 X106.982 Y85.515 E0.01539
G1 X107.393 Y85.782 E0.01539
G1 X107.775 Y86.091 E0.01539
G1 X108.122 Y86.438 E0.01539
G1 X108.430 Y86.819 E0.01539
G1 X108.698 Y87.231 E0.01539
G1 X108.920 Y87.668 E0.01539
G1 X109.096 Y88.126 E0.01539
G1 X109.223 Y88.600 E0.01539
G1 X109.300 Y89.085 E0.01539
G1 X109.325 Y89.557 E0.01482
G1 X109.325 Y92.566 E0.09433
G1 X109.344 Y92.930 E0.01143
G1 X109.398 Y93.272 E0.01087
G1 X109.488 Y93.607 E0.01087
G1 X109.612 Y93.931 E0.01087
G1 X109.770 Y94.240 E0.01087
G1 X109.958 Y94.530 E0.01087
G1 X110.176 Y94.800 E0.01087
G1 X110.422 Y95.045 E0.01087
G1 X110.691 Y95.263 E0.01087
G1 X110.982 Y95.452 E0.01087
G1 X111.291 Y95.609 E0.01087
